X:1
T:Etude op. 21 no 21
T:Etude op. 21 no 21
T:Joachim Andersen
C:Joachim Andersen
L:1/8
Q:1/4=100
M:3/4
K:Bb
V:1 treble nm="Flûte" snm="Fl."
V:1
"^Moderato"!f! .B/(f/d'/f/) .A/(f/^c'/f/) .B/(f/d'/f/) | .=B/(f/d'/f/) .=c/(d'/e'/=c'/ a/f/e/c/) | %2
 .A/(f/c'/f/) .^G/(f/=b/f/) .A/(f/c'/f/) | .A/(f/^c'/f/) ._B/(c'/e'/d'/ _b/f/=e/_e/) | %4
!ff! .d/(b/f'/b/) .^c/(b/=e'/b/) .d/(b/f'/b/) | .=c/(a/_e'/a/) .=B/(^g/d'/g/) .c/(a/e'/a/) | %6
 ._B/(f/d'/f/) .A/(f/c'/f/) .G/(f/b/f/) | .F/(f/a/f/)!>(! .G/(f/b/f/) (^G/=b/) (A/c'/)!>)! | %8
!f! ._B/(f/d'/f/) .A/(f/^c'/f/) .B/(f/d'/f/) | .=B/(f/d'/f/) .=c/(d'/e'/=c'/ a/f/e/c/) | %10
 .A/(f/c'/f/) .^G/(f/=b/f/) .A/(f/c'/f/) | .A/(f/^c'/f/) .B/(c'/e'/d'/ _b/f/=e/_e/) | %12
!ff! .d/(b/f'/b/) .^c/(b/=e'/b/) .d/(b/f'/b/) | ._e/(b/g'/b/) .=e/(b/_g'/b/) .f/(b/f'/b/) | %14
 .g/(b/!>(!=e'/b/) ._g/(b/_e'/b/) (f/d'/)(e/c'/)!>)! | %15
!f! .d/(f/!>(!b/f/) .c/(f/b/f/) .B/(f/b/f/)!>)! || %16
!mf! .A/(f/c'/f/)!<(! .G/(f/b/f/) .B/(f/d'/f/)!<)! | .A/(f/c'/f/)!>(! .d/(f/b/f/) .c/(f/a/f/)!>)! | %18
!p! .=B/(f/a/f/)!<(! .c/(f/a/f/) ._B/(=e/g/e/) | .A/(c/f/c/) ._A/(=B/f/B/)!<)! .G/(_B/=e/B/) | %20
!mf! .=A/(f/c'/f/) .G/(f/b/f/) .B/(f/d'/f/) | .A/(f/c'/f/)"_cresc." .=B/(f/a/f/) .B/(f/g/f/) | %22
!f! .c/(=e/g/e/) .F/(d/c'/d/) .G/(d/=b/d/) |!>(! .c/(=e/c'/e/) .=B/(e/c'/e/) ._B/(g/c'/g/)!>)! | %24
!mf! .A/(f/c'/f/) .G/(f/b/f/) .B/(f/d'/f/) | .A/(f/c'/f/)"_cresc." .d/(f/b/f/) .c/(f/a/f/) | %26
!f! .=B/(f/a/f/) .c/(f/a/f/)!>(! ._B/(=e/g/e/) | .A/(c/f/c/) ._A/(=B/f/B/)!>)! .G/(_B/=e/B/) | %28
!mf! .A/(f/c'/f/) .G/(f/b/f/) .B/(f/d'/f/) |!<(! .A/(f/c'/f/) .=B/(g/d'/g/) .d/(g/f'/g/)!<)! | %30
 .c/(a/c'/a/)"_cresc." .c/(_b/d'/b/) .c/(b/=e'/b/) | %31
!ff! .F/!>(!(=e'/g'/f'/ _e'/c'/a/f/ e/c/A/F/)!>)! ||!f! .B/(f/d'/f/) .A/(f/^c'/f/) .B/(f/d'/f/) | %33
 .=B/(f/d'/f/) .c/(d'/e'/=c'/ a/f/e/c/) | .A/(f/c'/f/) .^G/(f/=b/f/) .A/(f/c'/f/) | %35
 .A/(f/^c'/f/) ._B/(c'/e'/d'/ _b/f/=e/_e/) |!ff! .d/(b/f'/b/) .^c/(b/=e'/b/) .d/(b/f'/b/) | %37
 .c/(a/e'/a/) .=B/(^g/d'/g/) .c/(a/e'/a/) | ._B/(f/d'/f/) .A/(f/c'/f/) .G/(f/b/f/) | %39
!>(! .F/(f/a/f/) .G/(f/b/f/) (^G/=b/) (A/c'/)!>)! |!f! ._B/(f/d'/f/) .A/(f/^c'/f/) .B/(f/d'/f/) | %41
 .=B/(f/d'/f/) .c/(d'/e'/c'/ a/f/e/c/) | .A/(f/c'/f/) .^G/(f/=b/f/) .A/(f/c'/f/) | %43
 .A/(f/^c'/f/) ._B/(c'/e'/d'/ b/f/=e/_e/) |!ff! .d/(b/f'/b/) .^c/(b/=e'/b/) .d/(b/f'/b/) | %45
 ._e/(b/g'/b/) .=e/(b/_g'/b/) .f/(b/f'/b/) |!>(! .g/(b/=e'/b/) ._g/(b/_e'/b/) (f/d'/) (e/c'/)!>)! | %47
!f! .d/(f/b/f/)!>(! .c/(f/b/f/) .B/(f/b/f/)!>)! |!mf! ._a/(B/F/B/) .g/(B/E/B/) .^f/(B/D/B/) | %49
!<(! .g/(B/E/B/) .c'/(g/e/g/) .d'/(g/d/g/)!<)! | %50
!f! .e'/!>(!(g/c/g/) ._a/(e/c/e/) .=a/(e/F/e/)!>)! |!mf! .b/(d/B/d/) .A/(d/B/d/) (G/d/) (F/d/) | %52
 ._a/(B/F/B/) .g/(B/E/B/) .^f/(B/D/B/) |!<(! .g/(B/E/B/) .c'/(g/e/g/) .d'/(g/d/g/)!<)! | %54
!f! .e'/!>(!(g/c/g/) ._a/(e/c/e/) .=a/(e/F/e/)!>)! | %55
!mf! .b/(d/B/d/)!f! .f/(e/!>(!A/e/) (G/e/) (F/e/)!>)! | %56
!mf! .b/(d/B/d/)!f! .f/(e/!>(!A/e/) (G/e/) (F/e/)!>)! | %57
!mf! .B/(d/f/!<(!d/) .B/(d/b/d/) .B/(f/d'/f/)!<)! |!f! B4 z2 |] %59

